X: 5722
T: Café Racer
R: slip jig
M: 9/8
K: Cmajor
|:A2A2c2 e3|A2e gAe edd|A2G GAc edd|A2G GAg fec|
A2A2c2 e3|A2e gAe edd|A2G GAc e2_e|dcA AAA AGE:|
|:Aee eAg eAA|Aee eAg eA(c|c)Ac cAc2AA|Aee eAg fec|
Aee eAg eAA|Agf eAg eA(c|c)Ac cAc2AA|AcA AGE EGB:|

